X:1
T:9th Symphony
T:An die Freude / Ode to Joy
T:Ludwig van Beethoven (1770-1827)
T:Friedrich von Schiller
T:Ode to Joy
T:Creative Commons Attribution 4.0 International (CC BY 4.0) Copyright © 2019 Provided to the Choral Public Domain Library (http://www.cpdl.org) by the Freshman Chorus of St. John's College of Annapolis. Edition may be freely distributed, duplicated, performed, or recorded. 
T:Creative Commons Attribution 4.0 International (CC BY 4.0) Copyright © 2019 Provided to the Choral Public Domain Library (http://www.cpdl.org) by the Freshman Chorus of St. John's College of Annapolis. Edition may be freely distributed, duplicated, performed, or recorded. 
T:Creative Commons Attribution 4.0 International (CC BY 4.0) Copyright © 2019 Provided to the Choral Public Domain Library (http://www.cpdl.org) by the Freshman Chorus of St. John's College of Annapolis. Edition may be freely distributed, duplicated, performed, or recorded. 
C:Ludwig van Beethoven (1770-1827)
Z:Friedrich von Schiller
Z:Creative Commons Attribution 4.0 International (CC BY 4.0) Copyright © 2019
Z:Provided to the Choral Public Domain Library (http://www.cpdl.org)
Z:by the Freshman Chorus of St. John's College of Annapolis.
Z:Edition may be freely distributed, duplicated, performed, or recorded.
Z:
%%score 1 2 3 4
L:1/8
Q:3/8=120
M:6/8
K:Bb
V:1 treble nm="Soprano" snm="S."
V:2 treble nm="Alto" snm="A."
V:3 treble-8 nm="Tenor" snm="T."
V:4 bass nm="Bajo" snm="B."
V:1
!f! d3 d3 | e3 f3 | f3 e3 | d3 !breath!c3 | B3 B3 | c3 d3 | d3- d2 c | c2 z4 |!f! d3 d3 | e3 f3 | %10
w: Freu- de,|Schö- ner|Göt- ter-|fun- ken,|Toch ter|aus E-|ly- * si-|um!|Wir be-|tre- ten|
 f3 e3 | d3 !breath!c3 | B3 B3 | c3 d3 | c3- c2 B | B2 z4 |:!mf! c3 c3 | d3 B3 | c3 (d2 !breath!e | %19
w: feu- er-|trun- ken,|Himn- li-|sche, dein|Hei- * lig-|tum!|Dei- ne|Zau- ber|bin- den _|
 d3) B3 | c3 (d2 e | d3) c3 | B3 c3 | F3 d3- |!<(! d3!ff! d3!<)! | e3 f3 | f3 e3 | (d3 e2 c) | %28
w: wie- der|was die _|Mo- de|streng ge-|teilt; al-|* le|Men- schen|wer- den|Brü- * der,|
 B3 B3 | c3 d3 | c3- c2 B | B3 z2 z :| %32
w: wo dein|sanf- ter|Flü- * gel|weilt.|
V:2
 F3 F3 | F3 F3 | F3 F3 | F3 (F2 !breath!E | D3) F3 | F3 F3 | F3- F2 F | F2 z4 | F3 F3 | G3 _A3 | %10
w: Freu- de,|Schö- ner|Göt- ter-|fun- ken, _|Toch ter|aus E-|ly- * si-|um!|wir be-|tre- ten|
 _A3 G3 | F3 !breath!E3 | D3 D3 | E3 D3 | E3- E2 D | D2 z4 |: C3 F3 | F3 F3 | F3 !breath!F3 | %19
w: feu- er-|trun- ken,|Himn- li-|sche, dein|Hei- * lig-|tum!|Dei- ne|Zau- ber|bin- den|
 F3 F3 | F3 (D2 C | A3) A3 | D3 =E3 | F3 F3- |!<(! F3!ff! F3!<)! | G3 _A3 | A3 G3 | (F3 E2 G) | %28
w: wie- der|was die _|Mo- de|streng ge-|teilt; al-|* le|Men- schen|wer- den|Brü- * der,|
 D3 D3 | E3 F3 | E3- E2 D | D3 z2 z :| %32
w: wo dein|sanf- ter|Flü- * gel|weilt.|
V:3
 B3 B3 | c3 d3 | d3 c3 | B3 (B2 !breath!c | d3) d3 | F3 B3 | B3- B2 A | A2 z4 | B3 B3 | B3 B3 | %10
w: Freu- de,|Schö- ner|Göt- ter-|fun- ken, _|Toch ter|aus E-|ly- * si-|um!|Wir be-|tre- ten|
 B3 B3 | B3 !breath!B3 | B3 B3 | A3 B3 | A3- A2 B | B2 z4 |: A3 A3 | B3 d3 | A3 (B2 !breath!c | %19
w: feu- er-|trun- ken,|Himm- li-|sche, dein|Hei- * lig-|tum!|Dei- ne|Zau- ber|bin- den _|
 B3) d3 | A3 (B2 c | A3) ^F3 | G3 G3 | A3 B3- |!<(! B3!ff! B3!<)! | B3 (c2 d | e3) e3 | (B3 G2 E) | %28
w: wie- der,|was die _|Mo- de|streng ge-|teilt; al-|* le|Men- schen _|wer- den|Brü- * der,|
 F3 B3 | B3 B3 | A3- A2 B | B3 z2 z :| %32
w: wo dein|sanf- ter|Flü- * gel|weilt.|
V:4
 B,3 B,3 | B,3 B,3 | F,3 F,3 | F,3 (G,2 !breath!A, | B,3) F,3 | F,3 F,3 | F,3- F,2 F, | F,2 z4 | %8
w: Freu- de,|Schö- ner|Göt- ter-|fun- ken, _|Toch ter|aus E-|ly- * si-|um!|
 B,3 B,3 | B,3 B,3 | E,3 E,3 | E,3 !breath!E,3 | F,3 F,3 | F,3 F,3 | F,3- F,2 F, | B,,2 z4 |: %16
w: Wir be-|tre- ten|feu- er-|trun- ken,|Himm- li-|sche, dein|Hei- * lig-|tum!|
 F,3 F,3 | F,3 F,3 | F,3 !breath!F,3 | F,3 F,3 | F,3 F,3 | _G,3 D,3 | G,3 C,3 | =F,3 (F,3 | %24
w: Dei- ne|Zau- ber|bin- den|wie- der,|was die|Mo- de|streng ge-|teilt; al-|
!<(! B,3)!ff! B,3!<)! | B,3 B,3 | E,3 E,3 | E,3 E,3 | F,3 F,3 | F,3 F,3 | F,3- F,2 F, | %31
w: * le|Men- schen|wer- den|Brü- der|wo dein|sanf- ter|Flü- * gel|
 B,,3 z2 z :| %32
w: weilt.|

